images/ico-bicro-emploi-loupe.svg

<svg xmlns="http://www.w3.org/2000/svg" width="25" height="26" fill="none" viewBox="0 0 25 26"><g id="marche/loupe"><g id="Group 9"><circle id="Oval" cx="17.334" cy="6.25" r="6.25" fill="#cce1f8"/><path id="Shape" fill="#000638" fill-rule="evenodd" d="M11.75 1.91663C12.2941 1.91663 12.8312 1.97275 13.3552 2.08315C13.5803 2.13059 13.7244 2.35159 13.677 2.57676C13.6296 2.80194 13.4086 2.94602 13.1834 2.89858C12.7158 2.80007 12.2363 2.74996 11.75 2.74996C7.93003 2.74996 4.83333 5.84666 4.83333 9.66663C4.83333 13.1762 7.46149 16.1187 10.916 16.5336C11.1445 16.561 11.3074 16.7685 11.28 16.9969C11.2526 17.2254 11.0451 17.3884 10.8166 17.361C6.94453 16.8959 4 13.5993 4 9.66663C4 5.38642 7.46979 1.91663 11.75 1.91663ZM16.7558 15.0418C16.9029 15.2188 16.8787 15.4815 16.7017 15.6286C15.4664 16.6557 13.9424 17.2785 12.3171 17.3962C12.0876 17.4128 11.8881 17.2402 11.8715 17.0107C11.8549 16.7812 12.0274 16.5816 12.257 16.565C13.7072 16.46 15.0664 15.9046 16.169 14.9878C16.3459 14.8407 16.6086 14.8649 16.7558 15.0418ZM19.5001 9.66663C19.5001 6.64524 17.7552 3.93872 15.0745 2.66396C14.8666 2.56513 14.6181 2.65349 14.5192 2.86131C14.4204 3.06912 14.5088 3.31771 14.7166 3.41653C17.1095 4.55446 18.6667 6.96985 18.6667 9.66663C18.6667 11.2638 18.1243 12.7768 17.1448 13.9957C17.0006 14.1751 17.0292 14.4374 17.2086 14.5815C17.388 14.7256 17.6502 14.6971 17.7944 14.5177C18.8917 13.1521 19.5001 11.4553 19.5001 9.66663Z" clip-rule="evenodd"/><path id="Oval Copy" fill="#000638" fill-rule="evenodd" d="M5.66699 9.66671C5.66699 6.30697 8.39059 3.58337 11.7503 3.58337C15.1101 3.58337 17.8337 6.30697 17.8337 9.66671C17.8337 13.0264 15.1101 15.75 11.7503 15.75C8.39059 15.75 5.66699 13.0264 5.66699 9.66671ZM17.0003 9.66671C17.0003 6.76721 14.6498 4.41671 11.7503 4.41671C8.85083 4.41671 6.50033 6.76721 6.50033 9.66671C6.50033 12.5662 8.85083 14.9167 11.7503 14.9167C14.6498 14.9167 17.0003 12.5662 17.0003 9.66671Z" clip-rule="evenodd"/><path id="Oval_2" fill="#000638" fill-rule="evenodd" d="M8 6.50004C8 5.99378 8.41041 5.58337 8.91667 5.58337C9.42293 5.58337 9.83333 5.99378 9.83333 6.50004C9.83333 7.0063 9.42293 7.41671 8.91667 7.41671C8.41041 7.41671 8 7.0063 8 6.50004ZM9 6.50004C9 6.45402 8.96269 6.41671 8.91667 6.41671C8.87064 6.41671 8.83333 6.45402 8.83333 6.50004C8.83333 6.54606 8.87064 6.58337 8.91667 6.58337C8.96269 6.58337 9 6.54606 9 6.50004Z" clip-rule="evenodd"/><path id="Path 19" fill="#000638" d="M10.578 5.46674C11.3379 5.12285 12.0664 4.99962 12.7576 5.10556C13.4775 5.21591 14.0694 5.59192 14.5133 6.21566C14.6468 6.40314 14.603 6.6633 14.4155 6.79674C14.228 6.93018 13.9679 6.88638 13.8344 6.69891C13.5188 6.25542 13.1243 6.00485 12.6313 5.92927C12.1095 5.84929 11.5416 5.94534 10.9216 6.22595C10.7119 6.32082 10.465 6.22778 10.3702 6.01813C10.2753 5.80848 10.3683 5.56161 10.578 5.46674Z"/><path id="Path 20" fill="#000638" fill-rule="evenodd" d="M16.7516 16.6685L18.524 14.7011C18.6872 14.5199 18.9705 14.5171 19.1374 14.6949L22.8232 18.6237C23.3974 19.2887 23.3974 20.0301 22.8239 20.698C22.2408 21.3772 21.4528 21.4367 20.611 20.9054C20.5875 20.8906 20.5655 20.8735 20.5455 20.8543L16.7733 17.2485C16.6104 17.0928 16.6008 16.8359 16.7516 16.6685ZM18.8394 15.5954L17.641 16.9254L21.0894 20.2214L21.1187 20.2393C21.5744 20.5091 21.8809 20.4874 22.1544 20.1965L22.1915 20.1551C22.4966 19.7998 22.4966 19.5208 22.2038 19.1811L18.8394 15.5954Z" clip-rule="evenodd"/><path id="Path 21" fill="#000638" fill-rule="evenodd" d="M16.3896 15.3333L17.4172 16.2738L18.5311 15.3333L17.4172 14.25" clip-rule="evenodd"/><path id="Path 22" fill="#000638" d="M19.3504 15.6035C19.5 15.4287 19.7631 15.4083 19.9379 15.5579C20.1011 15.6976 20.1297 15.936 20.0111 16.1093L19.9835 16.1454L18.2742 18.1422C18.1246 18.317 17.8616 18.3375 17.6867 18.1878C17.5236 18.0481 17.4949 17.8097 17.6135 17.6364L17.6412 17.6003L19.3504 15.6035Z"/></g></g></svg>

<svg xmlns="http://www.w3.org/2000/svg" width="25" height="26" fill="none" viewBox="0 0 25 26"><circle cx="17.334" cy="6.25" r="6.25" fill="#CCE1F8"/><path fill="#000638" fill-rule="evenodd" d="M11.75 1.917a7.8 7.8 0 0 1 1.605.166.417.417 0 0 1-.172.816 6.917 6.917 0 1 0-2.267 13.635.417.417 0 1 1-.1.827 7.751 7.751 0 0 1 .934-15.444m5.006 13.125a.417.417 0 0 1-.054.587 7.7 7.7 0 0 1-4.385 1.767.417.417 0 1 1-.06-.831 6.9 6.9 0 0 0 3.912-1.577.417.417 0 0 1 .587.054M19.5 9.667a7.75 7.75 0 0 0-4.425-7.003.417.417 0 0 0-.358.753 6.92 6.92 0 0 1 3.95 6.25c0 1.597-.543 3.11-1.522 4.329a.417.417 0 1 0 .65.522A7.72 7.72 0 0 0 19.5 9.667" clip-rule="evenodd"/><path fill="#000638" fill-rule="evenodd" d="M5.667 9.667a6.083 6.083 0 1 1 12.167 0 6.083 6.083 0 0 1-12.167 0m11.333 0a5.25 5.25 0 1 0-10.5 0 5.25 5.25 0 0 0 10.5 0" clip-rule="evenodd"/><path fill="#000638" fill-rule="evenodd" d="M8 6.5a.917.917 0 1 1 1.833 0A.917.917 0 0 1 8 6.5m1 0a.083.083 0 1 0-.167 0A.083.083 0 0 0 9 6.5" clip-rule="evenodd"/><path fill="#000638" d="M10.578 5.467q1.141-.518 2.18-.361c.72.11 1.311.486 1.755 1.11a.417.417 0 1 1-.679.483c-.315-.444-.71-.694-1.203-.77-.521-.08-1.09.016-1.71.297a.417.417 0 1 1-.343-.76"/><path fill="#000638" fill-rule="evenodd" d="m16.752 16.669 1.772-1.968a.417.417 0 0 1 .613-.006l3.686 3.929c.574.665.574 1.406 0 2.074-.582.68-1.37.739-2.212.207a.4.4 0 0 1-.066-.05l-3.772-3.607a.417.417 0 0 1-.021-.58m2.087-1.074-1.198 1.33 3.448 3.296.03.018c.455.27.762.248 1.035-.043l.038-.04c.305-.356.305-.635.012-.975z" clip-rule="evenodd"/><path fill="#000638" fill-rule="evenodd" d="m16.39 15.333 1.027.94 1.114-.94-1.114-1.083" clip-rule="evenodd"/><path fill="#000638" d="M19.35 15.604a.417.417 0 0 1 .661.505l-.027.036-1.71 1.997a.417.417 0 0 1-.66-.506l.027-.036z"/></svg>
